X:347
T:El Mio Xuan (Arrg.)
R:Xiraldilla
C:Tradicional
S:Msica Tradicional Asturiana, (C) Tello & Tito. Asturies, 2001.
S:http://pagina.de/MusTradAst <telloytito@asturies.org>
A:Asturies
G:Arrg.
Z:Asturias, canciones
M:3/8
L:1/8
Q:1/4=120
K:G
D|: "G"GBG|"D"A3/2G/F|"D"AcA|"G"d3/2c/B|"D"AGF|"G"G3-|[1 "G"G z D :|[2 "G"G z G|
|:"G"B3/2A/B|"C"c3-|"C"c2 c|"G"d d/c/B/A/|"G"B2 B|"Am"c 
c/B/A/G/|"Am"A3/2B/c|"G"B B/A/G/F/|"G"G3-|"G"G z2:|
W:(Arrg. D)
W:    Re        Sol
W:El mio Xuan mirme,
W:  La     Sol
W:dxome galana,
W:    La      Re
W:que guapina tas.
W:    Re       Sol
W:Yo dxi-y Xuanucu
W:    La       Sol
W:nun tengo contigo
W:   La      Re
W:ganes de falar.
W:
W:    Re (Sim)   Sol
W:Y ents el mio Xuan
W:  La             Re
W:comenzme a afalagar
W:    Sol         La
W:con una vara d'ablanu.
W:   La                Re
W:Xuass, qu burru ye Xuan.
W:
W:Yo toa llorosa / fui a casa mio suegra / que cerquina ta. 
W:Dxome la vieya / nun tomes asina / les coses de Xuan.
W:
W:Porque'l mio Xuan ye / tan burru que nun lu hai ms,
W:tan vagu que nun trabaya / nin piensa de trabayar.
W:
W:  Re         Sol
W:Y toes les vecines
W:   La            Re
W:critiquen al mio Xuan,
W:      Re        Sol
W:pero eso son mentires
W:  La         Re
W:y ganes de falar.
W:
W:Re             La
W:Ai, Xuann del alma,
W:               Re
W:nun-yos faigas casu,
W:   Sol        La
W:tu sal-yos al pasu
W:    La     Sol La
W:con el qu dirn.
W:    La          Sol
W:Nun hai home en mundu
W:    La        Re
W:ms buenu que Xuan.
W:
W:El fai lo de casa / feliz y contentu, / l fai el formientu
W:y l amasa'l pan. / Nun hai home en mundu / ms buenu que Xuan.
W:
